!!!COM: Bach, Johann Sebastian
!!!CDT: 1685/3//-1750/7/28/
!!!OTL@@DE: O Welt, sieh hier dein Leben
!!!AGN: 4-Part Chorale
!!!SCT: BH 366
!!!SCT: BWV 394
**harm	**root	**kern	**kern	**kern	**kern
!	!	!bass	!tenor	!alto	!soprno
*	*Iorgan	*Iorgan	*Iorgan	*Iorgan	*Iorgan
*M4/4	*M4/4	*M4/4	*M4/4	*M4/4	*M4/4
*met(c)	*met(c)	*met(c)	*met(c)	*met(c)	*met(c)
*MM60	*MM60	*MM60	*MM60	*MM60	*MM60
*k[b-]	*k[b-]	*k[b-]	*k[b-]	*k[b-]	*k[b-]
*F:	*F:	*F:	*F:	*F:	*F:
I	4AA	4F	4c	8f	8a
.	.	.	.	8e	8g
=1	=1	=1	=1	=1	=1
IV	4DD	8B-	8d	4.d	4f
.	.	8A	8c	.	.
ii	4BB	4G	4B-	.	4g
.	.	.	.	8e	.
I	4AA	4F	4c	4.f	8a
.	.	.	.	.	8b-
Ib	4AA	4AA	4F	.	4cc
.	.	.	.	8c	.
=2	=2	=2	=2	=2	=2
ii7	4BB	4GG	4F	4d	2b-
V7	4EE	4C	4E	4c	.
I;	4AA;	4FF;	4F;	4c;	4a;
I	4AA	8F	4c	4f	8a
.	.	8G	.	.	8b-
=3	=3	=3	=3	=3	=3
Ib	4AA	4A	4c	8f	4cc
.	.	.	.	8e	.
Ib	4AA	8AA	4c	8f	4cc
.	.	8BB-	.	8g	.
V	4EE	4C	8c	8e	4g
.	.	.	8B-	8d	.
I	4AA	8F	4A	4c	8a
.	.	8E	.	.	8g
=4	=4	=4	=4	=4	=4
vi7	4FF#	4D	4A	4c	2f
V7/V	4BB	4GG	4G	4B	.
V;	4EE;	4C;	4G;	4c;	4e;
V	4EE	8C	4E	4G	4c
.	.	8BB-	.	.	.
=5	=5	=5	=5	=5	=5
Ib	8AA	8AA	4F	8c	4f
IV	8DD	8BB-	.	8d	.
viioc	4GG#	8AA	4B-	4e	4g
.	.	8GG	.	.	.
I	8AA	4FF	8c	8f	8a
viioc	8GG#	.	8B-	8e	8g
I	8AA	8F	8c	8f	8a
iib	8BB	8BB-	8d	8g	8b-
=6	=6	=6	=6	=6	=6
V;	2EE;	2C;	2c;	2e;	2g;
r	4r	4r	4r	4r	4r
V/vi	4CC#	4AA	4c#	4e	8a
.	.	.	.	.	8g
!!linebreak: 2
=7	=7	=7	=7	=7	=7
vi	4FF#	4D	8A	4d	4f
.	.	.	8B-	.	.
Vb	4EE	4E	8A	4c	4g
.	.	.	8G	.	.
I	4AA	8F	4F	8c	8a
.	.	8G	.	8B-	8b-
I	4AA	8F	4F	4A	4cc
.	.	8E	.	.	.
=8	=8	=8	=8	=8	=8
IVb	4DD	4D	8F	8A	2b-
.	.	.	4d	16G	.
.	.	.	.	16F	.
V7b	4EE	4E	.	4G	.
.	.	.	8c	.	.
I;	4AA;	4F;	4c;	4F;	4a;
vi	4FF#	4D	4d	4f	8a
.	.	.	.	.	8b-
=9	=9	=9	=9	=9	=9
Vb	8EE	8E	4c	8g	4cc
I	8AA	8F	.	8a	.
Vb	4EE	8E	4G	8g	4cc
.	.	8D	.	8f	.
V	4EE	8C	8G	8e	4g
.	.	8D	8F	8d	.
iiib	8CC#	8C	8E	4e	8a
v7c/iii	8GG#	8BB	8D	.	8g
=10	=10	=10	=10	=10	=10
iii7b	8CC#	4AA	8C	8e	2f
vic	8FF#	.	4A	16d	.
.	.	.	.	16c	.
viio7/V	4DD#	4BB	.	4d	.
.	.	.	8G	.	.
V;	4EE;	4C;	4G;	4c;	4e;
iii	4CC#	4AA	8A	8c	4c
.	.	.	8G	8B-	.
=11	=11	=11	=11	=11	=11
vi	4FF#	4D	4F	8A	4f
.	.	.	.	8B-	.
iii7b	8CC#	8C	8E	8A	4g
iib	8BB	8BB-	8D	8G	.
Ib	4AA	8AA	4.C	4F	8a
.	.	8GG	.	.	8b-
Ib	8AA	8AA	.	4f	8cc
IV	8DD	8BB-	8D	.	8b-
=12	=12	=12	=12	=12	=12
iiib	8CC#	8C	8E	8c	4a
IV7	8DD	8BB-	4F	8d	.
V	4EE	4C	.	8G	4g
.	.	.	8E	8c	.
I;	4AA;	4FF;	4C;	4A;	4f;
==	==	==	==	==	==
*-	*-	*-	*-	*-	*-
!!chor2scor: -l 2 -o %b.pmx
!!!YEC: Copyright 1994, David Huron
!!!YEC: Changes/Additions 2001 by Craig Stuart Sapp
!!!YEN: United States of America
!!!SMA: 371 Bach Chorales, edited by Ludwig Erk, C.F. Peters
!!!PDT: 1850, 1865
!!!ONB: Harmony and Root analysis done manually
